X:59
T: Ingem gatyám de szennyes...
K: F
M: 2/4
L: 1/4
dd | gg | f/fg/ | 
aa | gf | d/dd/ | 
fg | dc | B/Bc/ | 
dd | cB | G/GG/ | 

